!!!!SEGMENT: Ric2003-Veni_sponsa_Christi.krn
!!!id: Ric2003
!!!AGN: Motet
!!!SCT: Elzinga (1999)
!!!voices: 5
!!!COM: Jean Richafort
!!!OTL: Veni, sponsa Christi
**kern	**kern	**kern	**kern	**kern
*part5	*part4	*part3	*part2	*part1
*staff5	*staff4	*staff3	*staff2	*staff1
*I"Bassus	*I"Tenor	*I"Altus	*I"Superius II	*I"Superius I
*I'B	*I'T	*I'A	*I'S. II	*I'S. I
*clefF4	*clefGv2	*clefGv2	*clefG2	*clefG2
*k[b-]	*k[b-]	*k[b-]	*k[b-]	*k[b-]
*F:	*F:	*F:	*F:	*F:
*M2/1	*M2/1	*M2/1	*M2/1	*M2/1
*met(C|)	*met(C|)	*met(C|)	*met(C|)	*met(C|)
!!section: Prima pars: Veni, sponsa Christi
!!!OMD: Prima pars: Veni, sponsa Christi
=1	=1	=1	=1	=1
0C	0c	0r	1r	0r
.	.	.	1g	.
=2	=2	=2	=2	=2
2.F	2.A	0r	0a	0r
4G	4G	.	.	.
4A	4F	.	.	.
4B-y	4E	.	.	.
[2A	[2F	.	.	.
=3	=3	=3	=3	=3
2A]	2F]	0c	1r	1r
4G	4E	.	.	.
4F	4D	.	.	.
2.E	1C	.	1g	[1cc
4D	.	.	.	.
=4	=4	=4	=4	=4
[0F	0r	1A	2.a	1cc]
.	.	.	4g	.
.	.	1d	4f	1a
.	.	.	4e	.
.	.	.	[2f	.
=5	=5	=5	=5	=5
0F]	0r	1c	2f]	0cc
.	.	.	4e	.
.	.	.	4d	.
.	.	[1f	2c	.
.	.	.	[2a	.
=6	=6	=6	=6	=6
0r	0r	2f]	4a]	1dd
.	.	.	4g	.
.	.	8fL	1cc	.
.	.	8e	.	.
.	.	8d	.	.
.	.	8cJ	.	.
.	.	1d	.	[1ff
.	.	.	2bni	.
=7	=7	=7	=7	=7
0C	0c	1c	1cc	2ff]
.	.	.	.	4ee
.	.	.	.	4dd
.	.	1r	1g	1ee
=8	=8	=8	=8	=8
2.F	2.A	0r	0a	0r
4G	4G	.	.	.
4A	4F	.	.	.
4B-y	4E	.	.	.
[2A	[2F	.	.	.
=9	=9	=9	=9	=9
2A]	2F]	0c	1r	1r
4G	4E	.	.	.
4F	4D	.	.	.
2.E	1C	.	1g	[1cc
4D	.	.	.	.
=10	=10	=10	=10	=10
[0F	0r	1A	2.a	1cc]
.	.	.	4g	.
.	.	1d	4f	1a
.	.	.	4e	.
.	.	.	[2f	.
=11	=11	=11	=11	=11
0F]	2r	2.c	2f]	1cc
.	1c	.	4e	.
.	.	4B-y	4d	.
.	.	4A	2c	2.cc
.	.	4G	.	.
.	2A	[2F	[2cc	.
.	.	.	.	4b-y
=12	=12	=12	=12	=12
1r	2c	2F]	2cc]	4a
.	.	.	.	4g
.	2d	2.f	2a	2f
2r	1c	.	2.cc	1g
.	.	4e	.	.
[2c	.	4e	.	.
.	.	4d	4b-y	.
=13	=13	=13	=13	=13
2c]	1F	1f	4cc	1f
.	.	.	4a	.
2A	.	.	2dd	.
2c	1r	1F	2cc	2r
2d	.	.	2f	[2ff
=14	=14	=14	=14	=14
1c	0r	1r	1g	2ff]
.	.	.	.	2ee
1F	.	1f	2r	2cc
.	.	.	2a	[2ff
=15	=15	=15	=15	=15
2r	1B-y	1d	2f	4ff]
.	.	.	.	4ee
1G	.	.	2.b-y	2.dd
.	1G	1e	.	.
.	.	.	4a	4cc
2E	.	.	[2g	4cc
.	.	.	.	8b-yL
.	.	.	.	8aJ
=16	=16	=16	=16	=16
2G	1r	2d	2g]	2b-y
2A	.	2c	2f	1cc
1G	1B-y	1d	1g	.
.	.	.	.	2bni
=17	=17	=17	=17	=17
0C	2.G	2r	1r	0cc
.	.	2.c	.	.
.	4F	.	.	.
.	4E	.	1g	.
.	4C	4B-y	.	.
.	[2c	2G	.	.
=18	=18	=18	=18	=18
0r	4c]	1A	1e	2r
.	4B-y	.	.	.
.	1A	.	.	1cc
.	.	1F	1f	.
.	4G	.	.	2a
.	4F	.	.	.
=19	=19	=19	=19	=19
1r	2G	0r	2d	2b-y
.	2C	.	2e	2.cc
2r	1C	.	2.c	.
.	.	.	.	4b-y
[2c	.	.	.	2a
.	.	.	4d	.
=20	=20	=20	=20	=20
2c]	0r	0r	2e	2g
2A	.	.	1f	1a
2B-y	.	.	.	.
[2c	.	.	4e	2g
.	.	.	4d	.
=21	=21	=21	=21	=21
4c]	2r	1r	2e	1a
4B-y	.	.	.	.
4A	1c	.	2.f	.
4G	.	.	.	.
1F	.	2r	.	1r
.	.	.	4e	.
.	2A	[2f	[2a	.
=22	=22	=22	=22	=22
0r	2B-y	2f]	2a]	1r
.	2.c	4e	2g	.
.	.	4d	.	.
.	.	2e	[1a	2r
.	4B-y	.	.	.
.	4A	2e	.	[2cc
.	4G	.	.	.
=23	=23	=23	=23	=23
2r	1F	2A	1a]	4cc]
.	.	.	.	4b-y
1c	.	2f	.	2a
.	2r	2e	1r	2g
2A	2F	[2f	.	[2a
=24	=24	=24	=24	=24
2B-y	2D	2f]	1r	2a]
2.c	2E	4e	.	2g
.	.	4d	.	.
.	2.F	[1c	2r	2f
4B-y	.	.	.	.
4A	.	.	[2cc	[2a
4G	4G	.	.	.
=25	=25	=25	=25	=25
2F	4A	1c]	2cc]	4a]
.	4B-y	.	.	4g
2A	1c	.	2a	1f
1G	.	1r	1b-y	.
.	2B-y	.	.	2e
=26	=26	=26	=26	=26
0F	1c	2r	2.a	1f
.	.	1c	.	.
.	.	.	4g	.
.	2r	.	4f	2r
.	.	.	4e	.
.	2F	2A	[2f	2cc
=27	=27	=27	=27	=27
0r	2D	2B-y	2f]	2dd
.	2E	2.c	4e	2cc
.	.	.	4d	.
.	2.F	.	2c	2.a
.	.	4B-y	.	.
.	.	4A	[2cc	.
.	4G	4G	.	4b-y
=28	=28	=28	=28	=28
2r	4A	1F	4cc]	2cc
.	4B-y	.	4b-y	.
1F	2.c	.	2.a	2cc
.	.	2r	.	1f
.	4A	.	4g	.
2D	2Bni	2F	2f	.
=29	=29	=29	=29	=29
2E	1c	2G	2e	2r
2.F	.	2A	2.a	2cc
.	1r	2F	.	2a
4E	.	.	4g	.
4D	.	[2B-y	4f	[2dd
4C	.	.	4e	.
=30	=30	=30	=30	=30
2BB-y	1r	4B-]	4e	2dd]
.	.	4A	4c	.
2D	.	4G	1f	2b-y
.	.	4F	.	.
1C	2r	1G	.	4cc
.	.	.	.	4b-y
.	2c	.	2e	4a
.	.	.	.	4g
=31	=31	=31	=31	=31
0F	1c	[0F	0f	2a
.	.	.	.	2f
.	1A	.	.	2r
.	.	.	.	2ff
=32	=32	=32	=32	=32
0BB-y	2r	0F]	2r	2ff
.	2B-y	.	2f	2ff
.	2B-y	.	2f	4dd
.	.	.	.	4ee
.	2B-y	.	2f	4ff
.	.	.	.	4dd
=33	=33	=33	=33	=33
0r	2G	0r	4g	2ee
.	.	.	4f	.
.	2B-y	.	4e	1dd
.	.	.	4d	.
.	1A	.	2e	.
.	.	.	2e	2cc
=34	=34	=34	=34	=34
2r	0r	2r	1d	2.b-y
2B-y	.	2f	.	.
.	.	.	.	8aL
.	.	.	.	8gJ
2B-y	.	2f	[1b-y	2f
2B-y	.	2f	.	2ff
=35	=35	=35	=35	=35
2G	2r	4g	2b-]	2ee
.	.	4f	.	.
2B-y	2G	4e	2g	1dd
.	.	4d	.	.
1A	2.c	2e	1a	.
.	.	2e	.	2cc#i
.	4c	.	.	.
=36	=36	=36	=36	=36
0r	2B-y	1d	2r	0dd
.	2B-y	.	2g	.
.	2d	2r	2g	.
.	2D	2d	2f	.
=37	=37	=37	=37	=37
2r	2E	2B-y	2g	0r
2G	2E	2G	1b-y	.
2G	1D	1d	.	.
2F	.	.	2a	.
=38	=38	=38	=38	=38
1G	0r	1r	2.g	2r
.	.	.	.	2g
.	.	.	8fL	.
.	.	.	8eJ	.
[1B-y	.	2r	1d	2g
.	.	2d	.	2f
=39	=39	=39	=39	=39
2B-]	1r	2d	0r	2g
2A	.	2c	.	2a
1G	2r	1d	.	[1b-y
.	2G	.	.	.
=40	=40	=40	=40	=40
1F	2A	1f	1r	2b-]
.	2F	.	.	2a
1r	2G	2e	2r	2.g
.	[2B-y	[2d	2g	.
.	.	.	.	8fL
.	.	.	.	8eJ
=41	=41	=41	=41	=41
1r	2B-]	2d]	2g	4d
.	.	.	.	4e
.	2A	1c	2f	1f
2r	1G	.	2g	.
2G	.	2B-y	[2b-y	2e
=42	=42	=42	=42	=42
2A	1F	1c	2b-]	1f
2F	.	.	2a	.
2G	1r	1r	2.g	2r
[2B-y	.	.	.	2g
.	.	.	8fL	.
.	.	.	8eJ	.
=43	=43	=43	=43	=43
2B-]	2r	2r	4d	2g
.	.	.	4c	.
2A	2c	2F	1f	2f
1G	2d	2B-y	.	4g
.	.	.	.	4a
.	2B-y	2B-y	2e	4b-y
.	.	.	.	4g
=44	=44	=44	=44	=44
1.F	1c	2A	1f	2a
.	.	2A	.	2cc
.	2r	2G	2r	2dd
2E	2G	[2c	2c	2ee
=45	=45	=45	=45	=45
1D	2A	2c]	4d	1ff
.	.	.	4e	.
.	2F	2B-y	4f	.
.	.	.	4d	.
2C	2G	2c	2e	2ee
2BB-y	[2B-y	2F	2f	[2dd
=46	=46	=46	=46	=46
1F	2B-]	2r	2c	2dd]
.	2A	2c	1f	2.cc
1C	1G	2c	.	.
.	.	.	.	4b-y
.	.	2c	2e	2g
=47	=47	=47	=47	=47
00Fl	00Fl	00cl	00fl	00al
==	==	==	==	==
*-	*-	*-	*-	*-
!!!system-decoration: [*]
!!!RDF**kern: i = editorial accidental
!!!RDF**kern: l = terminal long
!!!ENC: Benjamin Ory
!!!END: 2021/1/11
!!!EED: Benjamin Ory
!!!EEV: 2021/05/02
!!!YEC: Copyright 2021 Benjamin Ory, All Rights Reserved
!!!ONB: Translated from MusicXML on 2021/05/02
